X: 1
T: Konvulsionsl\aaten   [Dm]
C: Anders (Stake) Norudde
S: printed page of unknown origin
S: Bruce Sagan's "scanfolk" session archive 2021-06-29
F: https://app.box.com/s/u6iiren0igvsukrhdducy7orq72jayq8/folder/135482264772 2021-07-28
M: 4/4
L: 1/8
K: Ddor
|: DEFD  E2ED- | DEFD  E2E2  | DEFG  A2GF | EFE2  D4  :|
|: cAcA  c2AB- | BGBG  B2Gc- | cAcd- dcB2 | ABcd- dddd |
|  dcBA- AF2c  | cBAG- GE2E  | DEFG  A2GF | EFE2  D4  :|
